X:1
T:Title
%%score ( 1 2 ) { 3 | 4 }
L:1/8
Q:1/4=107
M:4/4
K:Eb
V:1 treble nm="Grand Piano, Unnamed-000"
V:2 treble 
V:3 bass nm="Choir Pad, Burlington, CM"
V:4 bass 
V:1
 EF [EG]2 AG [EF]2 | [Ec]2 [EB]2 E2 [DF]2 | [FB]2 [E=A]2 [FB]2 dc | [FB][E=A] [DB]6 | %4
w: By~John~Freckleton~Burrowes,~1830 * * * * *||||
 [DB]2 [Ee]2 dc [EB]2 | E2 [Ee]2 dc [EB]2 | [FA]2 [EG][GB] [FA][CF] E2 | GF E6- | E2 z2 z4 |] %9
w: |||||
V:2
 z4 E2 z2 | x8 | z4 z2 G2 | x8 | z4 E2 z2 | z4 E2 z2 | x8 | D2 z2 z4 | x8 |] %9
V:3
 G,A, B,2 CB, =A,2 | A,2 G,2 =A,2 B,2 | B,2[K:treble] C2 D2 B,C | DC[K:bass] B,6 | %4
 B,A, B,2 A,2 B,2 | B,2 B,2 A,2 B,2 | B,2 B,E CA, G,2 | A,2 G,6- | G,2 z2 z4 |] %9
V:4
 E,2 E,2 E,2 E,2 | E,2 E,2 C,2 B,,2 | D,2 C,2 B,,2 E,2 | F,2 B,,6 | z2 G,2 z2 G,2 | %5
 G,2 G,2 z2 G,2 | D,2 E,G, F,A,, B,,2 | B,,2 E,6- | E,2 z2 z4 |] %9

